X:095 
T:Jimmy Giblin's Reel 
B:CRE3.118 (RÃÂÃÂÃÂÃÂ­l ShÃÂÃÂÃÂÃÂ©amais UÃÂÃÂÃÂÃÂ­ GhibeallÃÂÃÂÃÂÃÂ¡in)
F:file ID: cre.3/095jimmy_g
N:ABB per CRE.
R:reel
M:C
L:1/8
Q:180
K:D
DFAB d2ef|g2fg edBd|DFAB dfed|dBAF E2D2:|
|:faaf d3f|g2fg edBd|faaf d3f|gafg e3g|
faaf d3f|g2fg edBd|DFAB dfed|dBAF E/D/E D2:|

%%%

